build/img/pinterest.svg

<svg width="17" height="17" viewBox="0 0 17 17" fill="none" xmlns="http://www.w3.org/2000/svg">
<path d="M0.945312 8.19993C0.945312 11.4988 3.013 14.3154 5.92296 15.4236C5.85213 14.8203 5.77679 13.8254 5.93906 13.1274C6.0788 12.5272 6.84122 9.30364 6.84122 9.30364C6.84122 9.30364 6.61134 8.84322 6.61134 8.16129C6.61134 7.09235 7.23081 6.29387 8.00289 6.29387C8.65971 6.29387 8.97653 6.78648 8.97653 7.37697C8.97653 8.03701 8.55603 9.02353 8.33903 9.93857C8.15808 10.7042 8.72346 11.3288 9.47816 11.3288C10.8452 11.3288 11.8968 9.88705 11.8968 7.80584C11.8968 5.96353 10.5729 4.67629 8.68289 4.67629C6.49478 4.67629 5.21012 6.31769 5.21012 8.01447C5.21012 8.6758 5.46448 9.38413 5.78259 9.76985C5.80971 9.79898 5.82887 9.83461 5.83823 9.87329C5.84759 9.91197 5.84683 9.95242 5.83603 9.99072C5.77743 10.2341 5.64736 10.7564 5.62224 10.8633C5.58812 11.0036 5.51084 11.0339 5.36467 10.9656C4.40391 10.5188 3.80376 9.11432 3.80376 7.98614C3.80376 5.55913 5.56622 3.3311 8.88573 3.3311C11.5542 3.3311 13.6283 5.23266 13.6283 7.77364C13.6283 10.4247 11.9573 12.5588 9.63656 12.5588C8.85675 12.5588 8.12459 12.1531 7.87346 11.6746C7.87346 11.6746 7.48774 13.1441 7.39437 13.5034C7.21278 14.2014 6.70921 15.0849 6.3969 15.5866C7.11683 15.8081 7.88054 15.9272 8.67259 15.9272C12.94 15.9272 16.3999 12.4673 16.3999 8.19993C16.3999 3.93254 12.94 0.472656 8.67259 0.472656C4.4052 0.472656 0.945312 3.93254 0.945312 8.19993Z" fill="#36373C"/>
</svg>

<svg width="17" height="17" fill="none" xmlns="http://www.w3.org/2000/svg"><path d="M.945 8.2a7.73 7.73 0 0 0 4.978 7.224c-.07-.604-.146-1.599.016-2.297.14-.6.902-3.823.902-3.823s-.23-.46-.23-1.143c0-1.069.62-1.867 1.392-1.867.657 0 .974.492.974 1.083 0 .66-.421 1.647-.638 2.562-.18.765.384 1.39 1.14 1.39 1.366 0 2.418-1.442 2.418-3.523 0-1.842-1.324-3.13-3.214-3.13-2.188 0-3.473 1.642-3.473 3.338 0 .662.254 1.37.573 1.756a.232.232 0 0 1 .053.22c-.059.244-.189.766-.214.873-.034.14-.111.17-.257.103-.961-.447-1.561-1.852-1.561-2.98 0-2.427 1.762-4.655 5.082-4.655 2.668 0 4.742 1.902 4.742 4.443 0 2.65-1.67 4.785-3.991 4.785-.78 0-1.512-.406-1.764-.884l-.479 1.828c-.181.698-.685 1.582-.997 2.084.72.221 1.484.34 2.276.34A7.728 7.728 0 1 0 .945 8.2Z" fill="#36373C"/></svg>
